svgs/light/bracket-curly.svg

<svg xmlns="http://www.w3.org/2000/svg" viewBox="0 0 256 512"><!-- Font Awesome Pro 6.0.0-alpha2 by @fontawesome - https://fontawesome.com License - https://fontawesome.com/license (Commercial License) --><path d="M96 152.453V112C96 85.533 117.533 64 144 64H208C216.822 64 224 56.822 224 48S216.822 32 208 32H144C99.889 32 64 67.889 64 112V152.453C64 190.484 42.865 224.678 8.844 241.688C3.383 244.436 0 249.916 0 256S3.383 267.564 8.828 270.303C42.865 287.322 64 321.516 64 359.547V400C64 444.111 99.889 480 144 480H208C216.822 480 224 472.822 224 464S216.822 448 208 448H144C117.533 448 96 426.467 96 400V359.547C96 318.709 77.426 280.791 45.795 256C77.426 231.209 96 193.291 96 152.453Z"/></svg>

<svg xmlns="http://www.w3.org/2000/svg" viewBox="0 0 256 512"><!--! Font Awesome Pro 6.3.0 by @fontawesome - https://fontawesome.com License - https://fontawesome.com/license (Commercial License) Copyright 2023 Fonticons, Inc. --><path d="M96 152.5V112C96 85.53 117.5 64 144 64h64C216.8 64 224 56.82 224 48S216.8 32 208 32h-64C99.89 32 64 67.89 64 112v40.45c0 38.03-21.13 72.22-55.16 89.23C3.383 244.4 0 249.9 0 256s3.383 11.56 8.828 14.3C42.87 287.3 64 321.5 64 359.5V400c0 44.11 35.89 80 80 80h64c8.822 0 16-7.178 16-16S216.8 448 208 448h-64C117.5 448 96 426.5 96 400v-40.45C96 318.7 77.43 280.8 45.79 256C77.43 231.2 96 193.3 96 152.5z"/></svg>
